icons/check-small.svg

<svg xmlns="http://www.w3.org/2000/svg" width="24" height="24" viewBox="0 0 24 24">
  <path d="M17.2718,7.3146353 C17.6503165,6.91246155 18.2831909,6.89328354 18.6853647,7.27180001 C19.056602,7.62119983 19.1014998,8.18733072 18.808497,8.58868088 L18.7282,8.6853647 L10.2576118,17.6853647 C9.89097791,18.0749132 9.28990776,18.1027381 8.889783,17.7688394 L8.80121177,17.6853647 L5.27180001,13.9353647 C4.89328354,13.5331909 4.91246155,12.9003165 5.3146353,12.5218 C5.68587261,12.1724002 6.25368331,12.1618643 6.63655559,12.4786314 L6.72819999,12.5646353 L9.529,15.54 L17.2718,7.3146353 Z"/>
</svg>

<svg xmlns="http://www.w3.org/2000/svg" viewBox="0 0 24 24">
  <path d="M17.27 7.31a1 1 0 0 1 1.54 1.28l-.08.1-8.47 9a1 1 0 0 1-1.37.08l-.09-.08-3.53-3.75a1 1 0 0 1 1.37-1.46l.09.08 2.8 2.98 7.74-8.23z"/>
</svg>
